X:1
T:Seneca Square Dance
L:1/8
M:2/2
I:linebreak $
K:G
V:1 treble nm="Voice" snm="Voice"
V:1
 A2 |"G" B4 BABc | d2 B2- B2 A2 |"Em" B4 BA B2 | AGGE G2 A2 |$ B4 BABc | d2 B2- B2 AB | %7
w: |||||||
"D7" cBAG FDEF | G6 :| d |$ g2 ga gf e2 | dB-Bd B2 ef | gfef g2 a2 |$"Em" be-ef e2 ef | %14
w: |||||||
"C" g2 ga gf e2 |$ (3dBBd B2 AB | cBAG FDEF | [GA]4 :| %18
w: ||* www.abcnotation.comltunes * * * * * *||
